X:31
T:Julia, a Quadrile. GS.031
M:2/4
L:1/16
Q:1/4=90
S:George Spencer m/s, Leeds,1831
R:.Hornpipe
O:England
A:Leeds
N:conventional pause marks are written
N:above and below the final double ba
H:1831
Z:vmp.Cherri Graebe
K:Bb
F2 | f=efg f_ecA | â€œcrsâ€B2B2B2 (Bc) | d2(dc) B2d2 | BABe cdd=e |!
f=efg f_edc| B2B2B2 (Bc) | â€œcrsâ€d2d2 cBcd | B2b2 B2 :|!
|: F2 | B2(Bc) d2(dc) | BAcA F2(FA)|B2(Bc) d2(dB) |BAcA F4 |!
fede fgab | fede fgab | fdBd cBcd | B2B2 HB2 ğŸ˜

